X:9138
T:Lady Danby's Minuet. BC.55
M:3/4
L:1/8
Q:120
S:Benjamin Cooke MS.circa 1770, F.Kidson Coll.
R:Minuet
O:England
A:x
Z:John Bagnall
K:G
((3def) | g2 g2 g2 |"*"(3gab g4 | af d2 c2 | c2 B4 | db b2 b2 | ba-ag-gf
 |! (db a2)a2 | ag-gf-fe| Ag g2 g2 | ((3fga) ^c2 e2 | ((3bag) f2 e2 | d6
:|
